!! 00008] TT[TB
!! Eigene Aufnahme   +++ BAND 8 +++
!!!OTL: Canglao de dayan
!!!ARE: Neimeng
!! Ethnic Group: Menggu
!! MM
!!!SCT: C0195A
!!!YEM: Copyright 1995, estate of Helmut Schaffrath.
**kern
*ICvox
*Ivox
!! Irregular meter.
*MX
*k[f#c#g#d#a#]
*B:
{[2gg#
8gg#]
16ff#
16ff#
=1
2ff#
24dd#
24dd#
24dd#
=2
16dd#
16gg#
16cc#
16cc#
4.cc#
8r}
{24cc#
24cc#
24cc#
32gg#
32gg#
8aa#
24gg#
24gg#
24gg#}
{8r
16gg#
16gg#
24ff#
24gg#
24ff#
8gg#
8bb
8ccc#
[2ccc#
8ccc#]
8r}
{16ccc#
16bb
=3
4.ggg#
24fff#
24ggg#
24bbb
=4
4bb
4.gg#}
{16ff#
=5
4.ff#
16bb
=6
16dd#
16dd#
16dd#
16dd#
16dd#
16dd#
16cc#
=7
8.cc#}
{16cc#
16cc#
=8
24.gg#
48gg#
24gg#
16gg#
16gg#
16gg#
16bb
24bb
24bb
24ccc#
24gg#
24gg#
24gg#
=9
24ff#
24ff#
24ff#
4bb
8ccc#
2ccc#}
{16ccc#
16bb
=10
4.ggg#
24fff#
24ggg#
24bbb
16.bb
32gg#
=11
8bb
[8gg#
8.gg#]}
==
!!!AGN: Muge, Hirtenlied
!! Dieser Vortrag ist zwar "metrisch", nicht aber vernuenftig in Takte
!!    einteilbar. Die Pieps-Programme stoeren, wenn sie zwei Oktaven hoeher
!!    erklingen als der Gesang. Das "timbre" kann natuerlich nicht imitiert
!!    werden. Die Notenlaengen sind jedoch exakt ausgezaehlt.
!!!ONB: ESAC (Essen Associative Code) Database: CHINA
!!!AMT: irregular
!!!AIN: vox
!!!EED: Helmut Schaffrath
!!!EEV: 1.0
*-
